X:83
T:Chickadee Blizzard
C:Copyright Fred Keller
N:Transcribed by Fred Keller
R:bluegrass
L:1/8
Q:1/4=180
M:4/4
K:C
z4 zd e^f |: "G"g2 gb g2 gb | g2 gb ge dA | "D"BA ^FD ED FA |1 "G"G2 GB Dd e^f | 
g2 gb g2 gb | g2 gb gd BG | "A"A^G AB ^cd e^f | "D"d^c de ^fd ef :|2 "G"G2 G^F G2 GF | 
"Em"E^D E^F GF GA | "G"B_B =Bd ze dA | "D7"cA ^FD ED FA | "G"G^F GA G2 BA |: "F"F2 F2 F2 BA | 
F2 F2 F2 FE | "D"DE ^FG AB AF | "G"G^F GA Bd BA | "F"F2 F2 F2 BA | F2 F2 F2 FE | 
"D"DE ^FG AB AF |1 "G"G2 GG G2 BA :|2 "G"G2 GG G4 | 


